src/images/icons/youtube-icon.svg

<svg fill="none" height="28" viewBox="0 0 28 28" width="28" xmlns="http://www.w3.org/2000/svg"><g fill="#000"><path d="m12.2561 16.6232 4.554-2.6229-4.554-2.6229z"/><path d="m14 0c-7.7308 0-14 6.2692-14 14s6.2692 14 14 14 14-6.2692 14-14-6.2692-14-14-14zm8.7479 14.0143s0 2.8393-.3602 4.2084c-.2019.7494-.7928 1.3403-1.5421 1.5419-1.3692.3604-6.8456.3604-6.8456.3604s-5.46213 0-6.84555-.3747c-.74939-.2017-1.34027-.7927-1.54215-1.5421-.36038-1.3546-.36038-4.2082-.36038-4.2082s0-2.8391.36038-4.20816c.20166-.74939.80707-1.3548 1.54215-1.55646 1.36911-.36038 6.84555-.36038 6.84555-.36038s5.4764 0 6.8456.37469c.7493.20166 1.3402.79276 1.5421 1.54215.3747 1.36906.3602 4.22246.3602 4.22246z"/></g></svg>

<svg width="28" height="28" viewBox="0 0 28 28" fill="none" xmlns="http://www.w3.org/2000/svg">
<path d="M12.2561 16.6232L16.8101 14.0003L12.2561 11.3774V16.6232Z" fill="black"/>
<path d="M14 0C6.2692 0 0 6.2692 0 14C0 21.7308 6.2692 28 14 28C21.7308 28 28 21.7308 28 14C28 6.2692 21.7308 0 14 0ZM22.7479 14.0143C22.7479 14.0143 22.7479 16.8536 22.3877 18.2227C22.1858 18.9721 21.5949 19.563 20.8456 19.7646C19.4764 20.125 14 20.125 14 20.125C14 20.125 8.53787 20.125 7.15445 19.7503C6.40506 19.5486 5.81418 18.9576 5.6123 18.2082C5.25192 16.8536 5.25192 14 5.25192 14C5.25192 14 5.25192 11.1609 5.6123 9.79184C5.81396 9.04245 6.41937 8.43704 7.15445 8.23538C8.52356 7.875 14 7.875 14 7.875C14 7.875 19.4764 7.875 20.8456 8.24969C21.5949 8.45135 22.1858 9.04245 22.3877 9.79184C22.7624 11.1609 22.7479 14.0143 22.7479 14.0143V14.0143Z" fill="black"/>
</svg>
